X:1
T:Who Is This Man of Sorrows?
T:Lelia Naylor Morris, 1899
T:Who Is This Man of Sorrows?
T:Public Domain
T:Public Domain
T:Public Domain
T:Public Domain
C:Lelia Naylor Morris, 1899
Z:Public Domain
%%score ( 1 2 ) ( 3 4 )
L:1/8
M:9/8
K:F
V:1 treble 
V:2 treble 
V:3 bass 
V:4 bass 
V:1
 D2"^Solo" D D2 E FED | A3 D3 D2 E | (D2 D [DF]2) [DF] [EG]2 [DF] | [^CE]6 F2 A | %4
w: 1.~Who is this that com- eth from|E- dom, Crim- son|red * * His gar- ments|In * His|
w: 2.~Who is this, des- pised and re-|ject- ed, Who the|wine- * * press trod a-|Who * is|
w: 3.~Who is this with bear- ing so|king- ly, And a|crown * * His brow a-|Not * of|
w: 4.~Who is this on Cal- va- ry’s|mount- ain, Dy- ing|there * * such shame- ful|Who * for|
 (F2 F [FA]2) [FA] [Fd]2 [FA] | [EB]3 [FA]3 G2 F | (D2 D [DF]2) [DF] [DG]2 [D^G] | [^CA]6 A2 A | %8
w: hands * * are cru- el|prints, And a spear|wound * * in His side?|who is this|
w: this * * by all for-|en, Left to com-|fort * * there are none?|is this op-|
w: gold * * and gems be-|ting, But of mock-|ing, * * cru- el thorns?|with ma- ny|
w: His * * tor- ment- ors|ing, With His last|ex- * * pir- ing breath?|is this that|
 [Ec]3- [Ec]2 [EB] (GA)[EB] | [FA]3 F3 F2 F | [DF]3- [DF]2 [DF] [B,D]2 [B,D] | [A,C]6 C2 C | %12
w: “Man * of Sor- * rows”?|* is He thus|and * scarred? Who with|face and form|
w: pressed, * af- flict- * ed,|* no mur- mur|er * heard; As a|Lamb led to|
w: stripes * thus beat- * en?|* thus scourged and|up- * on? Why His|an- guish in|
w: earth * should trem- * ble|* the sun in|ness * hide, Rocks be|rent and graves|
 [A,F]3- [A,F]2 F [EG]2 [EG] | [FA]3 [Fc]3 [Fd]2 [DB] | (F2 F [FA]2) F [EA]2 [EG] | [CF]6 || %16
w: so * king- ly! Why|beau- teous vis- age|marred? * * * * *||
w: the * slaugh- ter, Yet|an- swers not a|word! * * It is Christ,|of|
w: the * gar- den, Kneel-|pray- ing all a-|lone? * * * * *||
w: be * o- pened, When|bowed His head and|died? * * * * *||
"^Refrain" c2 c | (E2 E [Ec]2) [EB] ([EG][FA])[GB] | [FA]3 [DF]3 F2 F | %19
w: |||
w: glo- ry,|Who * * His life * a|som gave, Bow be-|
w: |||
w: |||
 (F2 F [Fd]2) [Fd] [G=B]2 [FB] | (E2 E [Ec]3) ([Ac][Bd])[Be] | [Af]3 [Ac]3 ([FA][GB])[Ac] | %22
w: |||
w: fore * * Him, and a-|Him, * * Je- * sus|the might- y * to|
w: |||
w: |||
 [Gd]3 [Ff]3 B2 G | F2 A (c c2) c2 F | (E E2 [Ec]3) [CE]3 | (C C2 [DF]3 [CF]3) |] %26
w: ||||
w: save. * * *||||
w: ||||
w: ||||
V:2
 x9 | x9 | F3- x6 | x9 | A3- x6 | x9 | F3- x6 | x9 | x6 E2 x | x3 F3 x3 | x9 | x9 | x5 F x3 | x9 | %14
w: ||dyed?||nail||Say,||Why|pierced|||His||
w: ||lone?||sak-||Who||Yet|ev-|||He||
w: ||dorns,||fit-||Why||Why|spit|||ing,||
w: ||death?||pray-||Who||And|dark-|||He||
 A3- F x5 | x6 || x3 | c3- x6 | x9 | d3- x6 | c3- x6 | x9 | x6 B2 G | F2 A c c2 c3 | c3 x6 | %25
w: |||||||||||
w: the King|||ran-||dore|Christ|||||
w: |||||||||||
w: |||||||||||
 F3 x6 |] %26
w: |
w: |
w: |
w: |
V:3
 D,2 A,, D,2 E, F,E,D, | A,3 D,3 z3 | ([D,A,]2 [D,A,] [D,A,]2) [D,A,] [^C,A,]2 [D,A,] | %3
w: ~ ~ ~ ~ ~ ~ ~|~ ~|~ * * ~ ~ ~|
 [A,,A,]6 z3 | ([D,D]2 [D,D] [D,D]2) [D,D] [D,A,]2 [D,A,] | [C,G,]3 [D,F,]3 z3 | %6
w: ~|~ * * ~ ~ ~|~ ~|
 ([B,,F,]2 [B,,F,] [B,,F,]2) [B,,F,] [B,,E,]2 [B,,D,] | [A,,E,]6 z3 | (C,E,G, C2) z C2 z | %9
w: ~ * * ~ ~ ~|~|~ * * * ~|
 (F,A,C) [F,A,]3 z3 | (B,,D,F, B,2) z [B,,F,]2 [B,,F,] | [F,,F,]6 z3 | %12
w: ~ * * ~|~ * * * ~ ~|~|
 (F,,A,,C, F,2) z [C,C]2 [C,C] | [F,C]3 [F,A,]3 [B,,B,]2 z | %14
w: ~ * * * ~ ~|~ ~ ~|
 ([C,C]2 [C,C] [C,C]2) [C,A,] [C,C]2 [C,B,] | [F,A,]6 || z3 | %17
w: ~ * * ~ ~ ~|~||
 [C,G,]2 [C,G,] [C,G,]2 [C,G,] [C,C]2 [C,C] | [F,C]2 [F,C] [F,A,]2 [F,A,] z3 | %19
w: It is Christ, the King, the|King of glo- ry,|
 [B,,B,]2 [B,,B,] B,2 B, [G,D]2 G, | [C,G,]2 [C,G,] [C,G,]3 C2 C | [F,C]3 [F,F]3 [F,C]2 [F,F] | %22
w: Who His life, His life a|~ ~ ~ ~ ~|~ ~ ~ ~|
 [B,,F]3 [B,,D]3 B,2 G, | F,2 A, C C2 C2 [F,A,] | [C,G,] [C,G,]2- [C,G,]3 [C,B,]3 | %25
w: ~ ~ ~ ~|ty, the might- y to save.||
 [F,A,] [F,A,]2 [F,B,]3 [F,A,]3 |] %26
w: |
V:4
 x9 | x9 | x9 | x9 | x9 | x9 | x9 | x9 | x9 | x9 | x9 | x9 | x9 | x9 | x9 | x6 || x3 | x9 | x9 | %19
w: |||||||||||||||||||
 x3 B,2 B, x G, x | x6 C2 C | x9 | x6 B,2 G, | F,2 A, C C2 C2 x | x9 | x9 |] %26
w: ran- som gave,|~ ~||the migh-||||

